X:895
T:Xiraldilla (CT 417)
R:Xiraldilla
C:Tradicional
S:Msica Tradicional Asturiana, (C) Tello & Tito. Asturies, 2001.
S:http://pagina.de/MusTradAst <telloytito@asturies.org>
N:Xiraldilla, transcrita en Uviu.
A:Asturies
O:Uviu
Z:Cancioneru de Torner 417
M:2/4
L:1/8
Q:1/4=160
K:Cm
|: GG GG|c2 =Bd|c4|BA GA|c2 BA|G2 z2 :|
|: FF FF|B2 Ac|B2 A2|[1G4 :|[2 G2 z2||
W:Arriba, galn, arriba,
W:sube a la flor del romero,
W:que despus de haber subido,
W:ser tuya si yo quiero.
W:
W:Arriba, galn,
W:cara de cielo,
W:arriba, galn,
W:que yo te quiero.
W:
